X: 1
T:Root, Hog or Die - Jig
M:2/4
L:1/16
R:reel
B:Ryan's Mammoth Collection
N:118 664
Z:Contributed by Ray Davies,  ray:davies99.freeserve.co.uk
K:A
uE2|\
vABcd ecze | ecac B2zB | Bcde fdzf | fdb2 e2ze |
efga bbzg | agfe a2zc | dBcA Beze | ecdB A4 |]
v(3aaaa2 (3gggg2 | (3ffff2 ce z"4"e |\
 vE"0"AF"0"A G"0"AzA | cABc FAzuA |
.a2.a2 .g2.g2 | (3ffff2 cezue |\
 vE"0"AF"0"A G"0"AzuA | cABG A2|]
